X:159
T:The Cuckoo's Nest
C:Rutherford, c. 1755
N:Originally in 2:4.  C naturals in C-music by Colin Hume.  Fallibroome 5.
N:"G" at start of A bar 3 and each bar 7 was written as a grace note.
S:Colin Hume's website,  colinhume.com  - chords can also be printed below the stave.
Q:1/2=100
M:2/2
L:1/8
K:D
P:A
|: AG | "D"FEFD "/"fefd | "A"cAGF "Em"GBAG | "D"GFED "A"CDEF | "Em"G2E2 "A7"E2AG |\
"D"FEFD "/"fefd | "A"cAGF "Em"GBAG | "D"GFED "A7"CDEG | "D"F2D2 "/"D2 :|
P:B
|: A2 | "D"d3e "/"dfed | "A"c2A2 "/"A2B2 | "C"=c3d "/"cedc | "G"B2G2 "/"G2AG |\
"D"FEFD "/"fefd | "A"cAGF "Em"GBAG | "D"GFED "A7"CDEG | "D"F2D2 "/"D2 :|
P:C
|: FG | "D"AFDF "/"AFDF | "D"AGFE "/"D2EF | "C"GE=CE "/"GECE | "C"GFED "/"=C2AG |\
"D"FEFD "/"fefd | "A"cAGF "Em"GBAG | "D"GFED "A7"CDEG | "D"F2D2 "/"D2 :|

